Yosa-Max/actions/22x22/add.svg

<?xml version="1.0" encoding="UTF-8"?>
<svg id="svg4359" version="1.1" viewBox="0 0 22 22" xmlns="http://www.w3.org/2000/svg">
 <path id="path822" d="m5 3v16h6 1 1l4-4v-1-1-10h-12zm2 2h8v7.90625h-4.267578v4.09375h-3.732422v-12z" style="fill:#4d4d4d"/>
</svg>

<?xml version="1.0" encoding="UTF-8" standalone="no"?>
<svg
   xmlns:dc="http://purl.org/dc/elements/1.1/"
   xmlns:cc="http://creativecommons.org/ns#"
   xmlns:rdf="http://www.w3.org/1999/02/22-rdf-syntax-ns#"
   xmlns:svg="http://www.w3.org/2000/svg"
   xmlns="http://www.w3.org/2000/svg"
   width="22"
   height="22"
   id="svg4359"
   version="1.1">
  <defs
     id="defs4361" />
  <metadata
     id="metadata4364">
    <rdf:RDF>
      <cc:Work
         rdf:about="">
        <dc:format>image/svg+xml</dc:format>
        <dc:type
           rdf:resource="http://purl.org/dc/dcmitype/StillImage" />
        <dc:title></dc:title>
      </cc:Work>
    </rdf:RDF>
  </metadata>
  <path
     id="path822"
     d="M 5 3 L 5 19 L 11 19 L 12 19 L 13 19 L 17 15 L 17 14 L 17 13 L 17 3 L 5 3 z M 7 5 L 15 5 L 15 12.90625 L 10.732422 12.90625 L 10.732422 17 L 7 17 L 7 5 z "
     style="opacity:1;vector-effect:none;fill:#4d4d4d;fill-opacity:1;stroke:none;stroke-width:0.48999998;stroke-linecap:butt;stroke-linejoin:miter;stroke-miterlimit:4;stroke-dasharray:none;stroke-dashoffset:0;stroke-opacity:1" />
</svg>
